actions/16/go-bottom.svg

<?xml version="1.0" encoding="UTF-8" standalone="no"?>
<!-- Created with Inkscape (http://www.inkscape.org/) -->

<svg
   xmlns:dc="http://purl.org/dc/elements/1.1/"
   xmlns:cc="http://creativecommons.org/ns#"
   xmlns:rdf="http://www.w3.org/1999/02/22-rdf-syntax-ns#"
   xmlns:svg="http://www.w3.org/2000/svg"
   xmlns="http://www.w3.org/2000/svg"
   xmlns:xlink="http://www.w3.org/1999/xlink"
   xmlns:inkscape="http://www.inkscape.org/namespaces/inkscape"
   version="1.0"
   width="16"
   height="16"
   id="svg3242">
  <metadata
     id="metadata23">
    <rdf:RDF>
      <cc:Work
         rdf:about="">
        <dc:format>image/svg+xml</dc:format>
        <dc:type
           rdf:resource="http://purl.org/dc/dcmitype/StillImage" />
      </cc:Work>
    </rdf:RDF>
  </metadata>
  <defs
     id="defs3244">
    <linearGradient
       id="linearGradient2264">
      <stop
         id="stop2266"
         style="stop-color:#d7e866;stop-opacity:1"
         offset="0" />
      <stop
         id="stop2268"
         style="stop-color:#8cab2a;stop-opacity:1"
         offset="1" />
    </linearGradient>
    <linearGradient
       x1="28.314739"
       y1="20.709501"
       x2="0.81572169"
       y2="20.709501"
       id="linearGradient2465"
       xlink:href="#linearGradient2264"
       gradientUnits="userSpaceOnUse"
       gradientTransform="matrix(0,-0.319447,-0.313352,0,15.486281,14.08587)" />
    <linearGradient
       id="linearGradient4222">
      <stop
         id="stop4224"
         style="stop-color:#ffffff;stop-opacity:1"
         offset="0" />
      <stop
         id="stop4226"
         style="stop-color:#ffffff;stop-opacity:0"
         offset="1" />
    </linearGradient>
    <linearGradient
       x1="13.471772"
       y1="25.410501"
       x2="57.726395"
       y2="25.410501"
       id="linearGradient2461"
       xlink:href="#linearGradient4222"
       gradientUnits="userSpaceOnUse"
       gradientTransform="matrix(0,0.3704967,-0.3617496,0,17.508315,-2.3320543)" />
    <linearGradient
       id="linearGradient5113-1">
      <stop
         id="stop5115-1"
         style="stop-color:#ffffff;stop-opacity:1"
         offset="0" />
      <stop
         id="stop5117-7"
         style="stop-color:#ffffff;stop-opacity:0"
         offset="1" />
    </linearGradient>
    <linearGradient
       x1="29.230946"
       y1="-11.695148"
       x2="30.178646"
       y2="-2.4651299"
       id="linearGradient2458"
       xlink:href="#linearGradient5113-1"
       gradientUnits="userSpaceOnUse"
       gradientTransform="matrix(0.6129597,0,0,0.4969311,-11.936077,17.707148)" />
  </defs>
  <g
     id="layer1">
    <path
       d="M 14.176046,6.4999996 7.9844847,13.500853 1.8239536,6.4999996 l 2.6760464,0 0,-6.00085301 7,0 0,6.00085301 2.676046,0 0,0 z"
       inkscape:connector-curvature="0"
       id="path3288"
       style="fill:url(#linearGradient2465);fill-opacity:1;fill-rule:nonzero;stroke:#699536;stroke-width:0.99829447;stroke-linecap:round;stroke-linejoin:round;stroke-miterlimit:4;stroke-opacity:1;stroke-dasharray:none;stroke-dashoffset:0;marker:none;visibility:visible;display:inline;overflow:visible" />
    <path
       d="M 11.926403,7.4999996 8,12.045115 3.9630618,7.4999996 l 1.5369382,0 0,-6 5,0 0,6 1.426403,0 z"
       inkscape:connector-curvature="0"
       id="path3290"
       style="opacity:0.35400008;fill:none;stroke:url(#linearGradient2461);stroke-width:0.99829447;stroke-linecap:butt;stroke-linejoin:miter;stroke-miterlimit:4;stroke-opacity:1;stroke-dasharray:none;stroke-dashoffset:0;marker:none;visibility:visible;display:inline;overflow:visible" />
    <rect
       width="12.943659"
       height="1.9877317"
       x="1.5290473"
       y="13.512268"
       id="rect2488"
       style="fill:#c8dc5a;fill-opacity:1;fill-rule:nonzero;stroke:#699536;stroke-width:1;stroke-linecap:butt;stroke-linejoin:round;stroke-miterlimit:4;stroke-opacity:1;stroke-dasharray:none;stroke-dashoffset:0;marker:none;visibility:visible;display:inline;overflow:visible" />
    <path
       d="m 2.5,14.477091 11.00175,0"
       inkscape:connector-curvature="0"
       id="path2490"
       style="opacity:0.35400008;fill:none;stroke:url(#linearGradient2458);stroke-width:1;stroke-linecap:square;stroke-linejoin:miter;stroke-miterlimit:4;stroke-opacity:1;stroke-dasharray:none;stroke-dashoffset:0;marker:none;visibility:visible;display:inline;overflow:visible" />
  </g>
</svg>

<?xml version="1.0" encoding="UTF-8" standalone="no"?>
<!-- Created with Inkscape (http://www.inkscape.org/) -->
<svg
   xmlns:svg="http://www.w3.org/2000/svg"
   xmlns="http://www.w3.org/2000/svg"
   xmlns:xlink="http://www.w3.org/1999/xlink"
   version="1.0"
   width="16"
   height="16"
   id="svg3242">
  <defs
     id="defs3244">
    <linearGradient
       id="linearGradient2264">
      <stop
         id="stop2266"
         style="stop-color:#d7e866;stop-opacity:1"
         offset="0" />
      <stop
         id="stop2268"
         style="stop-color:#8cab2a;stop-opacity:1"
         offset="1" />
    </linearGradient>
    <linearGradient
       x1="28.314739"
       y1="20.709501"
       x2="0.81572169"
       y2="20.709501"
       id="linearGradient2465"
       xlink:href="#linearGradient2264"
       gradientUnits="userSpaceOnUse"
       gradientTransform="matrix(0,-0.319447,-0.313352,0,15.486281,14.08587)" />
    <linearGradient
       id="linearGradient4222">
      <stop
         id="stop4224"
         style="stop-color:#ffffff;stop-opacity:1"
         offset="0" />
      <stop
         id="stop4226"
         style="stop-color:#ffffff;stop-opacity:0"
         offset="1" />
    </linearGradient>
    <linearGradient
       x1="13.471772"
       y1="25.410501"
       x2="57.726395"
       y2="25.410501"
       id="linearGradient2461"
       xlink:href="#linearGradient4222"
       gradientUnits="userSpaceOnUse"
       gradientTransform="matrix(0,0.3704967,-0.3617496,0,17.508315,-2.3320543)" />
    <linearGradient
       id="linearGradient5113-1">
      <stop
         id="stop5115-1"
         style="stop-color:#ffffff;stop-opacity:1"
         offset="0" />
      <stop
         id="stop5117-7"
         style="stop-color:#ffffff;stop-opacity:0"
         offset="1" />
    </linearGradient>
    <linearGradient
       x1="29.230946"
       y1="-11.695148"
       x2="30.178646"
       y2="-2.4651299"
       id="linearGradient2458"
       xlink:href="#linearGradient5113-1"
       gradientUnits="userSpaceOnUse"
       gradientTransform="matrix(0.6129597,0,0,0.4969311,-11.936077,17.707148)" />
  </defs>
  <g
     id="layer1">
    <path
       d="M 14.176046,6.4999996 L 7.9844847,13.500853 L 1.8239536,6.4999996 L 4.5,6.4999996 L 4.5,0.49914659 L 11.5,0.49914659 L 11.5,6.4999996 L 14.176046,6.4999996 L 14.176046,6.4999996 z"
       id="path3288"
       style="fill:url(#linearGradient2465);fill-opacity:1;fill-rule:nonzero;stroke:#699536;stroke-width:0.99829447;stroke-linecap:round;stroke-linejoin:round;marker:none;stroke-miterlimit:4;stroke-dasharray:none;stroke-dashoffset:0;stroke-opacity:1;visibility:visible;display:inline;overflow:visible" />
    <path
       d="M 11.926403,7.4999996 L 8,12.045115 L 3.9630618,7.4999996 L 5.5,7.4999996 L 5.5,1.4999996 L 10.5,1.4999996 L 10.5,7.4999996 L 11.926403,7.4999996 z"
       id="path3290"
       style="opacity:0.35400008;fill:none;stroke:url(#linearGradient2461);stroke-width:0.99829447;stroke-linecap:butt;stroke-linejoin:miter;marker:none;stroke-miterlimit:4;stroke-dasharray:none;stroke-dashoffset:0;stroke-opacity:1;visibility:visible;display:inline;overflow:visible" />
    <rect
       width="12.943659"
       height="1.9877317"
       x="1.5290473"
       y="13.512268"
       id="rect2488"
       style="fill:#c8dc5a;fill-opacity:1;fill-rule:nonzero;stroke:#699536;stroke-width:1;stroke-linecap:butt;stroke-linejoin:round;marker:none;stroke-miterlimit:4;stroke-dasharray:none;stroke-dashoffset:0;stroke-opacity:1;visibility:visible;display:inline;overflow:visible" />
    <path
       d="M 2.5,14.477091 L 13.50175,14.477091"
       id="path2490"
       style="opacity:0.35400008;fill:none;stroke:url(#linearGradient2458);stroke-width:1;stroke-linecap:square;stroke-linejoin:miter;marker:none;stroke-miterlimit:4;stroke-dasharray:none;stroke-dashoffset:0;stroke-opacity:1;visibility:visible;display:inline;overflow:visible" />
  </g>
</svg>
